!!!!SEGMENT: pl-kk--kk-i-346--001_gorczycki-grzegorz-gerwazy--rorate-caeli.krn
!!!cenid: 17xx:2159
!!!COM: Gorczycki, Grzegorz Gerwazy
!!!COM-rismID: pe30009207
!!!CDT: ~1666-1734/04/30
!!!CNT: Polish
!!!OTL: Rorate caeli
!!!PDT:
!!!AGN: Sacred
!!!SMS-siglum: PL-Kk
!!!SMS-shelfmark: Kk.I.346
!!!SMS-shelfwork: 001 W
!!!SMS-variant:
!!!SMS-altvar:
!!!NIFC-rismSourceID: 1001145567
!!!NIFC-rismChildID: 1001145573
!!!NIFC-islandoraID: pl-kk:5762
!!!URL-pdf-islandora: https://repozytorium.nifc.pl/islandora/object/pl-kk%3A5762/datastream/PDF/view
!!!URL-scan: https://polish.musicsources.pl/pl/lokalizacje/galeria/rekopisy/5963 @EN{Scan on Polish Music Sources Website} @PL{Skany w portalu Dziedzictwo Muzyki Polskiej w otwartym dostępie}
!!!IIIF: https://repozytorium.nifc.pl/islandora/object/pl-kk%3A5762/datastream/IIIF/view
!!!ONB-nifc: UWAGA: utwory w zbiorze: 1. Rorate caeli, 2. Tollite portas, 3. Alleluja, 4. Ave Maria
!!!AIN: 1 alto 1 empty 2 tenor
!!!key:
**kern	**text	**text	**kern	**text	**text	**kern	**text	**text	**kern	**text	**text
*part4	*part4	*part4	*part3	*part3	*part3	*part2	*part2	*part2	*part1	*part1	*part1
*staff4	*staff4	*staff4	*staff3	*staff3	*staff3	*staff2	*staff2	*staff2	*staff1	*staff1	*staff1
*Iempty	*	*	*Itenor	*	*	*Itenor	*	*	*Ialto	*	*
*I"Baſsus.	*	*	*I"Tenor 2 d(us)	*	*	*I"Tenor Primus	*	*	*I"Altus	*	*
*mI" Basso	*	*	*mI"Tenor II	*	*	*mI"Tenot I	*	*	*mI"Alto	*	*
*I'B	*	*	*I'T2	*	*	*I'T 1	*	*	*I'A	*	*
*clefF4	*	*	*clefC4	*	*	*clefC4	*	*	*clefC3	*	*
*	*	*	*mclefGv2	*	*	*mclefGv2	*	*	*mclefG2	*	*
*k[]	*	*	*k[]	*	*	*k[]	*	*	*k[]	*	*
*d:	*	*	*d:	*	*	*d:	*	*	*d:	*	*
*M3/2	*	*	*M3/2	*	*	*M3/2	*	*	*M3/2	*	*
=1	=1	=1	=1	=1	=1	=1	=1	=1	=1	=1	=1
*xywh-#20:4209,394,3917,1076	*	*	*xywh-#15:4415,430,3812,1130	*	*	*xywh-#10:4431,430,3716,958	*	*	*xywh-#5:4287,485,3808,940	*	*
!LO:TX:t=P:problem=4\/middle&colon; global	!	!	!LO:TX:t=P:problem=4\middle&colon; global	!	!	!LO:TX:t=P:global:problem=oddech jako rozdzielacz słów	!	!	!LO:TX:t=P:global:problem=oddech jako rozdzielacz słów	!	!
!LO:TX:t=P:global:problem=oddech jako rozdzielacz słów	!	!	!LO:TX:t=P:global:problem=oddech jako rozdzielacz słów	!	!	!LO:TX:t=P:problem=4\middle&colon; global	!	!	!LO:TX:t=P:problem=4\middle&colon; global	!	!
2r	.	.	2r	.	.	1.r	.	.	2r	.	.
2r	.	.	2r	.	.	.	.	.	2r	.	.
*	*	*	*	*	*	*	*	*	*2\right	*	*
2D/	Ro-	.	2A/	Ro-	.	.	.	.	2f\	Ro-	.
=2	=2	=2	=2	=2	=2	=2	=2	=2	=2	=2	=2
4C#X/	-ra-	.	[<1.A\	-ra-	.	2r	.	.	4e\	-ra-	.
4BB/	.	.	.	.	.	.	.	.	4d\	.	.
4C#/	.	.	.	.	.	2r	.	.	4e\	.	.
4AA/	.	.	.	.	.	.	.	.	4c#X/	.	.
4BB/	.	.	.	.	.	2A/	Ro-	.	4d\	.	.
4C#X/	.	.	.	.	.	.	.	.	4e\	.	.
=3	=3	=3	=3	=3	=3	=3	=3	=3	=3	=3	=3
2D/	.	.	2A/]	.	.	2A/	-ra-	.	2f\	.	.
2D,/	-te	.	1A\	-te	.	2A,/	-te	.	2f\	-te	.
*2\right	*	*	*	*	*	*2\right	*	*	*	*	*
2A\	ro-	.	.	.	.	2c\	ro-	.	2e\	ro-	.
=4	=4	=4	=4	=4	=4	=4	=4	=4	=4	=4	=4
!	!	!	!	!	!	!LO:TX:t=P:problem=♮ above	!	!	!	!	!
4G#X\	-ra-	.	2r	.	.	4Bn\	-ra-	.	[1.e\	-ra-	.
4F#X\	.	.	.	.	.	4A\	.	.	.	.	.
4G#X\	.	.	2r	.	.	4B\	.	.	.	.	.
4E\	.	.	.	.	.	4G#X/	.	.	.	.	.
4F#X\	.	.	4A\	Cae-	.	4A\	.	.	.	.	.
4G#\	.	.	4B\	.	.	4B\	.	.	.	.	.
=5	=5	=5	=5	=5	=5	=5	=5	=5	=5	=5	=5
2A\	.	.	4c\	.	.	2c\	.	.	2e\]	.	.
.	.	.	4d\	.	.	.	.	.	.	.	.
2A\	-te	.	4e\	.	.	2c,\	-te	.	2A/	-te	.
.	.	.	4e\	-li	.	.	.	.	.	.	.
*	*	*	*2\right	*	*	*	*	*	*	*	*
2r	.	.	2d\	ro-	.	2f\	ro-	.	2a\	ro-	.
!LO:LB:g=original	!	!	!	!	!	!	!	!	!	!	!
=6	=6	=6	=6	=6	=6	=6	=6	=6	=6	=6	=6
*xywh-#20:4306,1170,3847,822	*	*	*	*	*	*	*	*	*	*	*
1.r	.	.	4c#X\	-ra-	.	(4e\	-ra-	.	[1.a\	-ra-	.
.	.	.	4B\	.	.	4d\	.	.	.	.	.
.	.	.	4c#\	.	.	4e\	.	.	.	.	.
.	.	.	4A\	.	.	4c#X\	.	.	.	.	.
.	.	.	4B\	.	.	4d\	.	.	.	.	.
.	.	.	4c#X\	.	.	4e\)	.	.	.	.	.
!	!	!	!LO:LB:g=original	!	!	!LO:LB:g=original	!	!	!LO:LB:g=original	!	!
=7	=7	=7	=7	=7	=7	=7	=7	=7	=7-	=7	=7
*	*	*	*xywh-#15:4371,1226,3867,787	*	*	*xywh-#10:4351,1129,3794,800	*	*	*xywh-#5:4287,1321,3832,686	*	*
4d\	Cae-	.	2d\	.	.	4f\	.	.	2a\]	.	.
4e-X\	.	.	.	.	.	4f,\	-te	.	.	.	.
4d\	.	.	2d\	-te	.	(4f\	Cae-	.	2a\	-te	.
4c\	.	.	.	.	.	4e\	.	.	.	.	.
4B-X\	.	.	2d\	ro-	.	4d\	.	.	2r	.	.
4A\	.	.	.	.	.	4c#X\)	.	.	.	.	.
=8	=8	=8	=8	=8	=8	=8	=8	=8	=8	=8	=8
1G\	.	.	2.Bn\	-ra-	.	(2d\	.	.	4g\	Cae-	.
.	.	.	.	.	.	.	.	.	4a\	.	.
.	.	.	.	.	.	4e\	.	.	4g\	.	.
.	.	.	4B\	-te	.	4f\)	.	.	4f\	.	.
2G\	-li	.	4B\	cae-	.	4g\	.	.	4e\	.	.
.	.	.	4d\	-li	.	4f\	.	.	4d\	.	.
=9	=9	=9	=9	=9	=9	=9	=9	=9	=9	=9	=9
1A\	de-	.	1A\	de-	.	4e\	.	.	4c#X/	.	.
.	.	.	.	.	.	4d\	-li	.	4c#/	-li	.
.	.	.	.	.	.	2d\	de-	.	2f\	de-	.
!LO:TX:t=P:problem=brak kreski taktowej	!	!	!	!	!	!	!	!	!	!	!
2AA/	-su-	.	2A/	-su-	.	2c#X\	-su-	.	2e\	-su-	.
=10-	=10	=10	=10	=10	=10	=10	=10	=10	=10	=10	=10
1D\	-per	.	1A\,	-per	.	1.d\	-per	.	1f\	-per	.
2r	.	.	2A/	et	.	.	.	.	2e\	et	.
=11	=11	=11	=11	=11	=11	=11	=11	=11	=11	=11	=11
2r	.	.	2.d\	nu-	.	2r	.	.	2.f\	nu-	.
2r	.	.	.	.	.	2r	.	.	.	.	.
.	.	.	4A\	-bes	.	.	.	.	4c\	-bes	.
2D/	et	.	4d\	plu-	.	2A/	et	.	4f\	plu-	.
.	.	.	4c\	-ant	.	.	.	.	4e\	-ant	.
=12	=12	=12	=12	=12	=12	=12	=12	=12	=12	=12	=12
2.G\	nu-	.	2Bn\	jus-	.	2.Bn\	nu-	.	2d\	ju-	.
.	.	.	2B,\	-tum,	.	.	.	.	2d,\	-stum,	.
4D\	-bes	.	.	.	.	4F#X/	-bes	.	.	.	.
4G\	plu-	.	2B\	et	.	4B\	plu-	.	2d\	et	.
4F\	-ant	.	.	.	.	4A\	-ant	.	.	.	.
=13	=13	=13	=13	=13	=13	=13	=13	=13	=13	=13	=13
2E\	ju-	.	2.e\	nu-	.	2G/	ju-	.	2.g\	nu-	.
2E,\	-stum,	.	.	.	.	2G,/	-stum,	.	.	.	.
.	.	.	4B\	-bes	.	.	.	.	4d\	-bes	.
2E\	et	.	4e\	plu-	.	2G/	et	.	4g\	plu-	.
.	.	.	4d\	-ant	.	.	.	.	4f\	-ant	.
!	!	!	!	!	!	!LO:LB:g=original	!	!	!LO:LB:g=original	!	!
=14	=14	=14	=14	=14	=14	=14	=14	=14	=14	=14	=14
*	*	*	*xywh-#15:4340,1790,3840,775	*	*	*xywh-#10:4296,1694,3865,808	*	*	*xywh-#5:4303,1715,3804,871	*	*
2.A\	nu-	.	1c\	jus-	.	2.c\	nu-	.	2e\	ju-	.
.	.	.	.	.	.	.	.	.	2e\	-stum	.
4E\	-bes	.	.	.	.	4G/	-bes	.	.	.	.
4A\	plu-	.	2c\	-tum	.	4c\	plu-	.	2e\	plu-	.
4G\	-ant	.	.	.	.	4B\	.	.	.	.	.
!LO:LB:g=original	!	!	!	!	!	!	!	!	!	!	!
=15	=15	=15	=15	=15	=15	=15	=15	=15	=15	=15	=15
*xywh-#20:4271,1726,3859,787	*	*	*	*	*	*	*	*	*	*	*
(2F\	ju-	.	2.d\	plu-	.	1A\	-ant	.	2d\	-ant	.
1E\)	.	.	.	.	.	.	.	.	1e\	ju-	.
.	.	.	4c\	ant	.	.	.	.	.	.	.
.	.	.	2B\	jus-	.	2G#X/	ju-	.	.	.	.
=16	=16	=16	=16	=16	=16	=16	=16	=16	=16	=16	=16
1AA/	-stum	.	1c#X\,	-tum,	.	1A\,	-stum	.	1e\	-stum,	.
2F\	a-	.	2A/	a-	.	2c\	a-	.	2f\	a-	.
=17	=17	=17	=17	=17	=17	=17	=17	=17	=17	=17	=17
1F\	-pe-	.	1G/	-pe-	.	1B-X\	-pe-	.	2.d\	-pe-	.
.	.	.	.	.	.	.	.	.	4d\	-ri-	.
!LO:TX:t=P:problem=brak kreski taktowej	!	!	!	!	!	!	!	!	!	!	!
2E\	-ri-	.	2G/	-ri-	.	2c\	-ri-	.	4e\	-a-	.
.	.	.	.	.	.	.	.	.	4e\	-tur	.
=18	=18	=18	=18	=18	=18	=18	=18	=18	=18	=18	=18
1F\	-a-	.	1A\	-a-	.	1c\	-a-	.	2c/	ter-	.
.	.	.	.	.	.	.	.	.	2c/	-ra,	.
2D/	-tur	.	2d\	-tur	.	2Bn\	-tur	.	2f\	et	.
=19	=19	=19	=19	=19	=19	=19	=19	=19	=19	=19	=19
1C/	ter-	.	2G/	ter-	.	1.c\	ter-	.	4c\	ger-	.
.	.	.	.	.	.	.	.	.	4B\	.	.
.	.	.	2G/	-ra	.	.	.	.	4c\	.	.
.	.	.	.	.	.	.	.	.	4d\	.	.
2C/	-ra	.	2c\	et	.	.	.	.	2e\	.	.
=20	=20	=20	=20	=20	=20	=20	=20	=20	=20	=20	=20
2r	.	.	4F/	ger-	.	1.c\	-ra,	.	2.f\	.	.
.	.	.	4E/	.	.	.	.	.	.	.	.
2r	.	.	4F/	.	.	.	.	.	.	.	.
.	.	.	4G/	.	.	.	.	.	4f\	-mi-	.
2F\	et	.	4A/	.	.	.	.	.	2f\	-net	.
.	.	.	4B\	.	.	.	.	.	.	.	.
!	!	!	!	!	!	!	!	!	!LO:LB:g=original	!	!
=21	=21	=21	=21	=21	=21	=21	=21	=21	=21	=21	=21
*	*	*	*	*	*	*	*	*	*xywh-#5:4283,2289,3820,783	*	*
4C/	ger-	.	2.c\	.	.	2r	.	.	1e\	ſal-	.
4BB/	.	.	.	.	.	.	.	.	.	.	.
4C/	.	.	.	.	.	2r	.	.	.	.	.
4D/	.	.	4c\	-mi-	.	.	.	.	.	.	.
4E\	.	.	2c\	-net	.	2c\	et	.	2e\	-va-	.
4F\	.	.	.	.	.	.	.	.	.	.	.
=22	=22	=22	=22	=22	=22	=22	=22	=22	=22	=22	=22
*	*	*	*xywh-#15:4352,2272,3651,869	*	*	*	*	*	*	*	*
2.G\	.	.	1Bn\	ſal-	.	4G/	ger-	.	1d\	-to-	.
.	.	.	.	.	.	4F/	.	.	.	.	.
.	.	.	.	.	.	4G/	.	.	.	.	.
4G\	-mi-	.	.	.	.	4A/	.	.	.	.	.
4G\	-net	.	2B\	-va-	.	4B\	.	.	2d\	-rem	.
4G\	et	.	.	.	.	4c\	.	.	.	.	.
=23	=23	=23	=23	=23	=23	=23	=23	=23	=23	=23	=23
4D\	ger-	.	1.A\	-to-	.	2.d\	-mi-	.	2r	.	.
4C\	.	.	.	.	.	.	.	.	.	.	.
4D\	.	.	.	.	.	.	.	.	2r	.	.
4E\	.	.	.	.	.	4d\	.	.	.	.	.
4F\	.	.	.	.	.	2d\	-net	.	2f\	et	.
4G\	.	.	.	.	.	.	.	.	.	.	.
!LO:LB:g=original	!	!	!	!	!	!LO:LB:g=original	!	!	!	!	!
=24	=24	=24	=24	=24	=24	=24	=24	=24	=24	=24	=24
*xywh-#20:4271,2258,2628,775	*	*	*	*	*	*xywh-#10:4312,2235,3304,855	*	*	*	*	*
2.A\	.	.	1A\,	-rem	.	(4A\	ger-	.	4c\	ger-	.
.	.	.	.	.	.	4G\	.	.	4B\	.	.
.	.	.	.	.	.	4A\	.	.	4c\	.	.
4A\	-mi-	.	.	.	.	4B\	.	.	4d\	.	.
2A\	-net	.	2c\	et	.	4c\)	.	.	4e\	.	.
.	.	.	.	.	.	4d\	.	.	4f\	.	.
=25	=25	=25	=25	=25	=25	=25	=25	=25	=25	=25	=25
1E\	sal-	.	2.G/	ger-	.	2e\	.	.	2g\	.	.
.	.	.	.	.	.	4B\	-mi-	.	4g\	-mi-	.
.	.	.	4G/	-mi-	.	4c\	.	.	4g\	-net	.
!LO:TX:t=P:problem=brak kreski taktowej	!	!	!	!	!	!	!	!	!	!	!
1D\	-va-	.	2A/	-net	.	2d,\	-net	.	2f\	ſal-	.
=26-	=26	=26	=26	=26	=26	=26	=26	=26	=26	=26	=26
.	.	.	2.A/	ſal-	.	2d\	ſal-	.	2f\	-va-	.
2A\	-to-	.	.	.	.	2d\	-va-	.	1e\	-to-	.
.	.	.	4A/	-va-	.	.	.	.	.	.	.
(>2AA/	-rem	.	2A/	-to-	.	2c#X\	-to-	.	.	.	.
=27	=27	=27	=27	=27	=27	=27	=27	=27	=27	=27	=27
2D/)	.	.	2A,/	-rem	.	2d,\	-rem	.	2f#X\	-rem	.
2G\	sal-	al-	2G/	ſal-	al-	2B-X\	ſal-	al-	2g\	ſal-	al-
2F#X\	-va-	-le-	2A/	-va-	-le-	2A/	-va-	-le-	2d\	-va-	-le-
=28	=28	=28	=28	=28	=28	=28	=28	=28	=28	=28	=28
!LO:TX:t=P:problem=brak kreski taktowej	!	!	!	!	!	!	!	!	!LO:TX:t=P:problem=brak kreski taktowej	!	!
1.G\	-to-	-lu-	2.B-X\	-to-	-lu-	1.B-X\	-to-	-lu-	1.g\	-to-	-lu-
.	.	.	4A\	.	.	.	.	.	.	.	.
.	.	.	4B-\	.	.	.	.	.	.	.	.
.	.	.	4c\	.	.	.	.	.	.	.	.
=29-	=29	=29	=29	=29	=29	=29	=29	=29	=29	=29-	=29
!	!	!	!	!LO:MO:mod=-rem.	!	!LO:MO:mod=1.A;	!	!	!	!	!
1.D\;	-rem.	-ja.	1.d\;	-rem,	-ja.	1.A\	-rem.	-ja.	1.f#X\;<	-rem.	-ja.
!	!	!	!	!	!	!LO:LB:g=original	!	!	!LO:LB:g=original	!	!
=30||-	=30||-	=30||-	=30||-	=30||-	=30||-	=30||-	=30||-	=30||-	=30||-	=30||-	=30||-
*xywh-#20:4329,2760,3778,841	*	*	*xywh-#15:4379,2856,3832,783	*	*	*xywh-#10:4304,2632,3810,945	*	*	*xywh-#5:4295,2884,3792,699	*	*
*M2/1	*	*	*M2/1	*	*	*M2/1	*	*	*M2/1	*	*
*met(C|)	*	*	*met(C|)	*	*	*met(C|)	*	*	*met(C|)	*	*
*met(C|)	*	*	*mmet(C|)	*	*	*mmet(C|)	*	*	*mmet(C|)	*	*
!LO:TX:t=P:problem=kreska pseudotaktowa	!	!	!	!	!	!	!	!	!	!	!
1D\	Be-	.	1F/	Be-	.	1A\	Be-	.	2r	.	.
!	!	!	!	!	!	!	!	!	!LO:TX:t=P:problem=kreska pseudotaktowa	!	!
.	.	.	.	.	.	.	.	.	2f\	Be-	.
2D/	-ne-	.	1G/	-ne-	.	2B-X\	-ne-	.	2e\	-ne-	.
!LO:TX:t=P:problem=kreska pseudotaktowa	!	!	!	!	!	!LO:TX:t=P:problem=kreska pseudotaktowa	!	!	!LO:TX:t=P:problem=kreska pseudotaktowa	!	!
2C/	-di-	.	.	.	.	2G/	-di-	.	2e\	-di-	.
=31-	=31-	=31-	=31-	=31-	=31-	=31-	=31-	=31-	=31-	=31-	=31-
!	!	!	!	!	!	!	!	!	!LO:TX:t=P:problem=kreska pseudotaktowa	!	!
2.F\	-xi-	.	1A\	-di-	.	4F/	-xi-	.	1f\	-xi-	.
.	.	.	.	.	.	4G/	.	.	.	.	.
.	.	.	.	.	.	2.A/	.	.	.	.	.
!LO:TX:t=P:problem=kreska pseudotaktowa	!	!	!	!	!	!	!	!	!	!	!
4E\	.	.	.	.	.	.	.	.	.	.	.
2D,/	-sti	.	1A\	-xi-	.	.	.	.	2f\	-sti	.
.	.	.	.	.	.	4Bn\	.	.	.	.	.
!	!	!	!	!	!	!LO:TX:t=P:problem=kreska pseudotaktowa	!	!	!LO:TX:t=P:problem=kreska pseudotaktowa	!	!
1AA/	Do-	.	.	.	.	2c#X\	-sti	.	2e\	Do-	.
=32-	=32-	=32-	=32-	=32-	=32-	=32-	=32-	=32-	=32-	=32-	=32-
!	!	!	!LO:TX:t=P:problem=kreska pseudotaktowa	!	!	!	!	!	!	!	!
.	.	.	1A\	-sti	.	2d\	Do-	.	2f\	.	.
!LO:TX:t=P:problem=kreska pseudotaktowa	!	!	!	!	!	!LO:TX:t=P:problem=kreska pseudotaktowa	!	!	!LO:TX:t=P:problem=kreska pseudotaktowa	!	!
2AA/	-mi-	.	.	.	.	2e\	.	.	2c#X/	.	.
!LO:TX:t=P:problem=kreska pseudotaktowa	!	!	!	!	!	!	!	!	!	!	!
1D\	-ne	.	[1A\	Do-	.	2f\	.	.	4d\	.	.
.	.	.	.	.	.	.	.	.	4e\	.	.
!	!	!	!	!	!	!	!	!	!LO:TX:t=P:problem=kreska pseudotaktowa	!	!
.	.	.	.	.	.	1d\	.	.	2f\	.	.
=33-	=33-	=33-	=33-	=33-	=33-	=33-	=33-	=33-	=33-	=33-	=33-
!LO:TX:t=P:problem=kreska pseudotaktowa	!	!	!	!	!	!	!	!	!	!	!
1r	.	.	2A\]	.	.	.	.	.	2.e\	.	.
!	!	!	!	!	!	!LO:TX:t=P:problem=kreska pseudotaktowa	!	!	!	!	!
.	.	.	2A/	-mi-	.	2c#X\	-mi-	.	.	.	.
!	!	!	!	!	!	!	!	!	!LO:TX:t=P:problem=kreska pseudotaktowa	!	!
.	.	.	.	.	.	.	.	.	4e\	-mi-	.
*lig	*	*	*	*	*	*	*	*	*	*	*
!	!	!	!LO:TX:t=P:problem=kreska pseudotaktowa	!	!	!	!	!	!LO:TX:t=P:problem=kreska pseudotaktowa	!	!
1D\	ter-	.	1A\	-ne	.	2d,\	-ne	.	1f\	-ne	.
.	.	.	.	.	.	1A\	ter-	.	.	.	.
=34-	=34-	=34-	=34-	=34-	=34-	=34-	=34-	=34-	=34-	=34-	=34-
*	*	*	*lig	*	*	*	*	*	*	*	*
1F\	.	.	1A\	ter-	.	.	.	.	2r	.	.
.	.	.	.	.	.	2.c\	.	.	4c\	ter-	.
.	.	.	.	.	.	.	.	.	4d\	.	.
!	!	!	!	!	!	!	!	!	!LO:TX:t=P:problem=kreska pseudotaktowa	!	!
*Xlig	*	*	*	*	*	*	*	*	*	*	*
2C/	-ram	.	1c\	.	.	.	.	.	2e\	.	.
.	.	.	.	.	.	4B-X\	.	.	.	.	.
*	*	*	*	*	*	*xywh-#10:4257,3267,3876,918	*	*	*xywh-#5:4319,3298,3776,811	*	*
!LO:TX:t=P:problem=kreska pseudotaktowa	!	!	!	!	!	!LO:TX:t=P:problem=kreska pseudotaktowa	!	!	!LO:TX:t=P:problem=kreska pseudotaktowa	!	!
!	!	!	!	!	!	!LO:LB:g=original	!	!	!LO:LB:g=original	!	!
2.FF/	tu-	.	.	.	.	2.A/	.	.	2c/	-ram	.
*	*	*	*Xlig	*	*	*	*	*	*	*	*
=35-	=35-	=35-	=35-	=35-	=35-	=35-	=35-	=35-	=35-	=35-	=35-
!	!	!	!LO:TX:t=P:problem=kreska pseudotaktowa	!	!	!	!	!	!	!	!
.	.	.	1A\	-ram	.	.	.	.	4f\	tu-	.
4GG/	.	.	.	.	.	4G/	.	.	4c\	.	.
4AA/	.	.	.	.	.	2F/	-ram	.	1f\	.	.
!LO:TX:t=P:problem=kreska pseudotaktowa	!	!	!	!	!	!	!	!	!	!	!
4BB-X/	.	.	.	.	.	.	.	.	.	.	.
!LO:TX:t=P:problem=kreska pseudotaktowa	!	!	!	!	!	!LO:TX:t=P:problem=kreska pseudotaktowa	!	!	!	!	!
1C/	.	.	1G/	tu-	.	1c\	tu-	.	.	.	.
!	!	!	!	!	!	!	!	!	!LO:TX:t=P:problem=kreska pseudotaktowa	!	!
.	.	.	.	.	.	.	.	.	2e\	.	.
=36-	=36-	=36-	=36-	=36-	=36-	=36-	=36-	=36-	=36-	=36-	=36-
!	!	!	!LO:TX:t=P:problem=kreska pseudotaktowa	!	!	!LO:TX:t=P:problem=kreska pseudotaktowa	!	!	!LO:TX:t=P:problem=kreska pseudotaktowa	!	!
2FF,/	-am	.	1A\	-am	.	1c\	-am	.	1f\	-am	.
1F\	a-	.	.	.	.	.	.	.	.	.	.
*	*	*	*lig	*	*	*	*	*	*	*	*
!	!	!	!	!	!	!	!	!	!LO:TX:t=P:problem=kreska pseudotaktowa	!	!
.	.	.	1G/	a-	.	2r	.	.	1r	.	.
!LO:TX:t=P:problem=kreska pseudotaktowa	!	!	!	!	!	!	!	!	!	!	!
2E\	-ver-	.	.	.	.	1c\	a-	.	.	.	.
!LO:LB:g=original	!	!	!	!	!	!	!	!	!	!	!
=37-	=37-	=37-	=37-	=37-	=37-	=37-	=37-	=37-	=37-	=37-	=37-
*xywh-#20:4291,3285,3801,872	*	*	*	*	*	*	*	*	*	*	*
2F\	-ti-	.	1F/	.	.	.	.	.	2r	.	.
*	*	*	*Xlig	*	*	*	*	*	*	*	*
!LO:TX:t=P:problem=kreska pseudotaktowa	!	!	!	!	!	!LO:TX:t=P:problem=kreska pseudotaktowa	!	!	!	!	!
2D/	.	.	.	.	.	2Bn\	-ver-	.	1f\	a-	.
*	*	*	*lig	*	*	*	*	*	*	*	*
1C/	.	.	1G/	-ver-	.	1c\	-ti-	.	.	.	.
!	!	!	!	!	!	!	!	!	!LO:TX:t=P:problem=kreska pseudotaktowa	!	!
.	.	.	.	.	.	.	.	.	2e\	-ver-	.
=38-	=38-	=38-	=38-	=38-	=38-	=38-	=38-	=38-	=38-	=38-	=38-
1FF/,	-sti,	.	1A\	.	.	2A/	-sti	.	1f\	-ti-	.
*	*	*	*Xlig	*	*	*	*	*	*	*	*
.	.	.	.	.	.	2.c\	ca-	.	.	.	.
*	*	*	*xywh-#15:4351,3365,3832,838	*	*	*	*	*	*	*	*
!	!	!	!LO:LB:g=original	!	!	!	!	!	!	!	!
2.F\	ca-	.	1A\	-ti-	.	.	.	.	2c/	-sti	.
.	.	.	.	.	.	4d\	.	.	.	.	.
!	!	!	!	!	!	!	!	!	!LO:TX:t=P::problem=kreska pseudotaktowa&colon;między nutą a kropką	!	!
.	.	.	.	.	.	4c\	.	.	[<2f\	ca-	.
!LO:TX:t=P:problem=kreska pseudotaktowa	!	!	!	!	!	!LO:TX:t=P:problem=kreska pseudotaktowa	!	!	!	!	!
4G\	.	.	.	.	.	4B\	.	.	.	.	.
=39-	=39-	=39-	=39-	=39-	=39-	=39-	=39-	=39-	=39-	=39-	=39-
!	!	!	!	!	!	!	!	!	!LO:MO:mod=!null:null	!	!
!	!	!	!LO:TX:t=P:problem=kreska pseudotaktowa	!	!	!	!	!	!LO:N:xstem:cue	!	!
4F\	.	.	1A\,	-sti	.	2A\	-pti-	.	4f\]	.	.
4E\	.	.	.	.	.	.	.	.	4g\	.	.
!LO:TX:t=P:problem=kreska pseudotaktowa	!	!	!	!	!	!	!	!	!LO:TX:t=P:problem=kreska pseudotaktowa	!	!
2D/	.	.	.	.	.	(4d\	-vi-	.	4f\	.	.
!	!	!	!	!	!	!LO:TX:t=P:problem=kreska pseudotaktowa	!	!	!	!	!
.	.	.	.	.	.	4f\)	.	.	4d\	.	.
4C#X/	-pti-	.	1A\	ca-	.	2e\	-ta-	.	4e\	-pti-	.
4C#/	-vi-	.	.	.	.	.	.	.	4e\	-vi-	.
!LO:TX:t=P:problem=kreska pseudotaktowa	!	!	!	!	!	!LO:TX:t=P:problem=kreska pseudotaktowa	!	!	!LO:TX:t=P:problem=kreska pseudotaktowa	!	!
2D/	-ta-	.	.	.	.	2d,\	-tem	.	2f\	-ta-	.
=40-	=40-	=40-	=40-	=40-	=40-	=40-	=40-	=40-	=40-	=40-	=40-
2AA/	-tem	.	1A\	-pti-	.	2.e\	ca-	.	2e\	-tem	.
!	!	!	!	!	!	!	!	!	!LO:TX:t=P:problem=kreska pseudotaktowa	!	!
2.A\	ca-	.	.	.	.	.	.	.	2r	.	.
!	!	!	!	!	!	!LO:TX:t=P:problem=kreska pseudotaktowa	!	!	!	!	!
.	.	.	.	.	.	4f\	.	.	.	.	.
.	.	.	1A\	-vi-	.	4e\	.	.	2.a\	Ca-	.
4B-X\	.	.	.	.	.	4d\	.	.	.	.	.
*	*	*	*	*	*	*xywh-#10:4328,3817,3806,867	*	*	*	*	*
!	!	!	!	!	!	!LO:LB:g=original	!	!	!	!	!
!	!	!	!	!	!	!LO:TX:t=P:problem=kreska pseudotaktowa	!	!	!	!	!
4A\	.	.	.	.	.	2c\	.	.	.	.	.
!LO:TX:t=P:problem=kreska pseudotaktowa	!	!	!	!	!	!	!	!	!LO:TX:t=P:problem=kreska pseudotaktowa	!	!
4G\	.	.	.	.	.	.	.	.	4b-X\	.	.
=41-	=41-	=41-	=41-	=41-	=41-	=41-	=41-	=41-	=41-	=41-	=41-
*	*	*	*lig	*	*	*	*	*	*	*	*
2F\	-pti-	.	1A\	-ta-	.	4d\	.	.	4a\	.	.
.	.	.	.	.	.	4e\	.	.	4g\	.	.
*	*	*	*	*	*	*	*	*	*xywh-#5:4299,3900,3784,847	*	*
!	!	!	!	!	!	!	!	!	!LO:LB:g=original	!	!
!LO:TX:t=P:problem=kreska pseudotaktowa	!	!	!	!	!	!	!	!	!LO:TX:t=P:problem=kreska pseudotaktowa	!	!
2D/	-vi-	.	.	.	.	4d\	.	.	2f\	-pti-	.
!	!	!	!	!	!	!LO:TX:t=P:problem=kreska pseudotaktowa	!	!	!	!	!
.	.	.	.	.	.	4c\	.	.	.	.	.
4G\	-ta-	.	1Bn\	.	.	2Bn\	-pti-	.	2d\	-vi-	.
*	*	*	*Xlig	*	*	*	*	*	*	*	*
4A\	.	.	.	.	.	.	.	.	.	.	.
!	!	!	!	!	!	!LO:TX:t=P:problem=kreska pseudotaktowa	!	!	!	!	!
4G\	.	.	.	.	.	2G/	-vi-	.	4g\	-ta-	.
!LO:TX:t=P:problem=kreska pseudotaktowa	!	!	!	!	!	!	!	!	!LO:TX:t=P:problem=kreska pseudotaktowa	!	!
4F\	.	.	.	.	.	.	.	.	4a\	.	.
=42-	=42-	=42-	=42-	=42-	=42-	=42-	=42-	=42-	=42-	=42-	=42-
2E\	.	.	1c\	.	.	4c\	-ta-	.	4g\	.	.
.	.	.	.	.	.	4d\	.	.	4f\	.	.
!	!	!	!	!	!	!	!	!	!LO:TX:t=P:problem=kreska pseudotaktowa	!	!
2Cny/	-tem	.	.	.	.	4c\	.	.	2e\	.	.
!	!	!	!	!	!	!LO:TX:t=P:problem=kreska pseudotaktowa	!	!	!	!	!
.	.	.	.	.	.	4B\	.	.	.	.	.
*xywh-#20:4252,3875,3870,818	*	*	*	*	*	*	*	*	*	*	*
!LO:LB:g=original	!	!	!LO:TX:t=P:problem=kreska pseudotaktowa	!	!	!	!	!	!	!	!
2F\	Ja-	.	1A\	-tem	.	2A\	.	.	2c/	-tem	.
!LO:TX:t=P:problem=kreska pseudotaktowa	!	!	!	!	!	!	!	!	!LO:TX:t=P:problem=kreska pseudotaktowa	!	!
2AA/	.	.	.	.	.	2c\	.	.	2f\	Ja-	.
=43-	=43-	=43-	=43-	=43-	=43-	=43-	=43-	=43-	=43-	=43-	=43-
*	*	*	*lig	*	*	*	*	*	*	*	*
!	!	!	!	!	!	!LO:TX:t=P:problem=kreska pseudotaktowa	!	!	!	!	!
2BB-X/	.	.	1G/	Ja-	.	1B-X\	.	.	2d\	.	.
!	!	!	!	!	!	!	!	!	!LO:TX:t=P:problem=kreska pseudotaktowa	!	!
2C/	.	.	.	.	.	.	.	.	2e\	.	.
*lig	*	*	*	*	*	*	*	*	*	*	*
1D\	.	.	1F/	.	.	2A,/	-tem	.	4f\	.	.
*	*	*	*Xlig	*	*	*	*	*	*	*	*
.	.	.	.	.	.	.	.	.	4e\	.	.
.	.	.	.	.	.	1A\	Ja-	.	1d\	.	.
=44-	=44-	=44-	=44-	=44-	=44-	=44-	=44-	=44-	=44-	=44-	=44-
1AA/	.	.	1E/	.	.	.	.	.	.	.	.
*Xlig	*	*	*	*	*	*	*	*	*	*	*
.	.	.	.	.	.	2A/	.	.	2c#X/	.	.
0D\;	-cob.	.	0D/;	-cob.	.	0A\;	-cob.	.	0d\;	-cob.	.
=45||-	=45||-	=45||-	=45||-	=45||-	=45||-	=45||-	=45||-	=45||-	=45||-	=45||-	=45||-
*M3/4	*	*	*M3/4	*	*	*M3/4	*	*	*M3/4	*	*
4.F\	Glo-	.	4.A/	Glo-	.	4.A\	Glo-	.	4.c/	Glo-	.
8F\	-ri-	.	8A/	-ri-	.	8B\	-ri-	.	8d\	-ri-	.
4C/	-a	.	4G/	-a	.	4c\	-a	.	4e\	-a	.
!	!	!	!	!	!	!LO:LB:g=original	!	!	!	!	!
=46	=46	=46	=46	=46	=46	=46	=46	=46	=46	=46	=46
*	*	*	*	*	*	*xywh-#10:4324,4358,3029,824	*	*	*	*	*
4F\	Pat-	.	4A/	Pat-	.	4c\	Pat-	.	4f\	Pat-	.
4E\	-ri	.	4G/	-ri	.	4c\	-ri	.	4c\	-ri	.
4D/	et	.	4F/	et	.	4B\	et	.	4f\	et	.
!	!	!	!LO:LB:g=original	!	!	!	!	!	!LO:LB:g=original	!	!
=47	=47	=47	=47	=47	=47	=47	=47	=47	=47	=47	=47
*	*	*	*xywh-#15:4371,3906,3796,822	*	*	*	*	*	*xywh-#5:4254,4358,2659,855	*	*
4.C/	Fi-	.	4.G/	Fi-	.	4.c\	Fi-	.	4.e\	Fi-	.
8C/	-li-	.	8G/	-li-	.	8c\	-li-	.	8e\	-li-	.
4C/	-o	.	4G/	-o	.	4c\	-o	.	4e\	-o	.
=48	=48	=48	=48	=48	=48	=48	=48	=48	=48	=48	=48
1.r	.	.	4r	.	.	4r	.	.	4r	.	.
.	.	.	4c\	et	.	4e\	et	.	4g\	et	.
!	!	!	!LO:TX:t=P:problem=brak kreski taktowej	!	!	!	!	!	!	!	!
.	.	.	4A\	Spi-	.	4f\	Spi-	.	4a\	Spi-	.
=49	=49	=49	=49	=49	=49	=49	=49	=49	=49	=49	=49
.	.	.	4.B-X\	-ri-	.	4.d\	-ri-	.	4.f\	-ri-	.
.	.	.	8B-\	-tu-	.	8e\	-tu-	.	8g\	-tu-	.
!	!	!	!LO:TX:t=P:problem=brak kreski taktowej	!	!	!LO:TX:t=P:problem=brak kreski taktowej	!	!	!LO:TX:t=P:problem=brak kreski taktowej	!	!
!	!	!	!	!	!	!LO:MO:null:mod=[4f	!	!	!LO:MO:mod=[4a	!	!
.	.	.	4F/	-i	.	2f\	-i	.	2a\	-i	.
=50	=50	=50	=50	=50	=50	=50-	=50	=50	=50-	=50	=50
!	!	!	!	!	!	!LO:MO:null:mod=4f]	!	!	!LO:MO:null:mod=4a]	!	!
2.r	.	.	2.c\	ſan-	.	.	.	.	.	.	.
.	.	.	.	.	.	(4f\	ſan-	.	2g\	ſan-	.
.	.	.	.	.	.	4e\)	.	.	.	.	.
=51	=51	=51	=51	=51	=51	=51	=51	=51	=51	=51	=51
4.F\	ſi-	.	2.F/	-cto.	.	2f\	-cto.	.	2.a\	-cto.	.
8F\	-cut	.	.	.	.	.	.	.	.	.	.
*	*	*	*	*	*	*custos:cc	*	*	*	*	*
8F\	e-	.	.	.	.	4r	.	.	.	.	.
8F\	-rat	.	.	.	.	.	.	.	.	.	.
!	!	!	!	!	!	!LO:PB:g=original	!	!	!	!	!
=52	=52	=52	=52	=52	=52	=52	=52	=52	=52	=52	=52
*	*	*	*	*	*	*xywh-#11:559,468,3837,901	*	*	*	*	*
*	*	*	*custos:ff	*	*	*	*	*	*custos:f	*	*
2E\	in	.	2.r	.	.	4.c\	Si-	.	2.r	.	.
.	.	.	.	.	.	8c\	-cut	.	.	.	.
4C/	prin-	.	.	.	.	8c\	e-	.	.	.	.
.	.	.	.	.	.	8c\	-rat	.	.	.	.
!LO:LB:g=original	!	!	!	!	!	!	!	!	!LO:PB:g=original	!	!
=53	=53	=53	=53	=53	=53	=53	=53	=53	=53	=53	=53
*xywh-#20:4264,4365,3654,868	*	*	*	*	*	*	*	*	*xywh-#6:451,670,3782,835	*	*
4.F\	-ci-	.	8A/	Si-	.	2A/	in	.	4.f\	Si-	.
.	.	.	8A/	-cut	.	.	.	.	.	.	.
.	.	.	8A/	e-	.	.	.	.	.	.	.
8F\	-pi-	.	8A/	-rat	.	.	.	.	8f\	-cut	.
4F\	-o	.	8A/	in	.	4F/	prin-	.	8f\	e-	.
.	.	.	8A/	prin-	.	.	.	.	8f\	-rat	.
=54	=54	=54	=54	=54	=54	=54	=54	=54	=54	=54	=54
4C/	et	.	4.G/	-ci-	.	4.c\	-ci-	.	2e\	in	.
4C/	nunc	.	.	.	.	.	.	.	.	.	.
.	.	.	8G/	-pi-	.	8c\	-pi-	.	.	.	.
4E\	et	.	4G/	-o	.	4c\	-o	.	4c/	prin-	.
=55	=55	=55	=55	=55	=55	=55	=55	=55	=55	=55	=55
4.F\	sem-	.	4A/	et	.	4c\	et	.	4.f\	-ci-	.
.	.	.	4A/	nunc	.	4c\	nunc	.	.	.	.
(8E\	.	.	.	.	.	.	.	.	8f\	-pi-	.
!	!	!	!LO:MO:mod=[4A	!	!	!	!	!	!	!	!
4D/)	.	.	2A/	et	.	4d\	.	.	8f\	-o	.
.	.	.	.	.	.	.	.	.	8f\	et	.
=56	=56	=56	=56-	=56	=56	=56	=56	=56	=56	=56	=56
*	*	*	*xywh-#15:4348,4404,3785,834	*	*	*	*	*	*	*	*
!LO:TX:t=P:problem=brak kreski taktowej	!	!	!	!	!	!	!	!	!	!	!
!	!	!	!LO:MO:null:mod=4A]	!	!	!	!	!	!	!	!
2.E\	.	.	.	.	.	4c\	et	.	4e\	nunc	.
!	!	!	!LO:LB:g=original	!	!	!	!	!	!	!	!
.	.	.	(4A/	sem-	.	2Bn\	ſem-	.	4e\	et	.
.	.	.	4G#X/)	.	.	.	.	.	4e\	ſem-	.
=57-	=57	=57	=57	=57	=57	=57	=57	=57	=57	=57	=57
!	!	!	!	!	!	!	!	!	!	!LO:MO:mod=-per,	!
4AA/	-per	.	4A,/	-per,	.	4c#X\	-per	.	4e,\	-p(er),	.
4A\	et	.	4A/	et	.	4c#\	et	.	4a\	et	.
4B-X\	in	.	4d\	in	.	4d\	in	.	4g\	in	.
=58	=58	=58	=58	=58	=58	=58	=58	=58	=58	=58	=58
!	!LO:SIC:v:l:s=sae	!	!	!LO:SIC:v:l:s=sae	!	!	!LO:SIC:v:l:s=sae	!	!	!LO:SIC:v:l:s=sae	!
4.A\	se-	.	4.e\	se-	.	4.c#X\	se-	.	4.a\	se-	.
8G\	-cu-	.	8e\	-cu-	.	8c#\	-cu-	.	8a\	-cu-	.
4F\	-la	.	4f\	-la	.	4d\	-la	.	4a\	-la	.
=59	=59	=59	=59	=59	=59	=59	=59	=59	=59	=59	=59
!	!LO:SIC:v:l:s=sae	!	!	!LO:SIC:v:l:s=sae	!	!	!	!	!	!LO:SIC:v:l:s=sae	!
4.G\	se-	.	4.d\	se-	.	4.B\	se-	.	4.g\	se-	.
8F\	-cu-	.	8d\	-cu-	.	8B\	-cu-	.	8g\	-cu-	.
4E\	-lo-	.	4e\	-lo-	.	4c#X\)	-lo-	.	4g\	-lo-	.
!	!	!	!	!	!	!LO:LB:g=original	!	!	!LO:LB:g=original	!	!
=60	=60	=60	=60	=60	=60	=60	=60	=60	=60	=60	=60
*	*	*	*	*	*	*xywh-#11:549,1010,2447,881	*	*	*xywh-#6:428,1291,3120,703	*	*
4D/	-rum	.	4A/	-rum	.	4d\	-rum	.	4f\	-rum	.
!	!	!	!LO:TX:t=P:problem=brak kreski taktowej	!	!	!	!	!	!	!	!
(<4A\	a-	.	2A/	am-	.	(4d\	a-	.	2e\	am-	.
4AA/)	.	.	.	.	.	4c#X\)	.	.	.	.	.
=61	=61	=61	=61-	=61	=61	=61	=61	=61	=61	=61	=61
!LO:MO:mod=1.D;	!	!	!LO:MO:mod=1.A;	!	!	!	!	!	!	!	!
1.D\;;	-men.	.	1.A\;;	-men.	.	1.d\;<	-men.	.	1.f#X\;<	-men.	.
!	!	!	!LO:TX:t=Rorate ut Supra.:mod=	!	!	!LO:TX:t=Rorate ut \nSupra.:mod=	!	!	!LO:TX:t=Rorate ut Supra.:mod=	!	!
==	==	==	==	==	==	==	==	==	==	==	==
*-	*-	*-	*-	*-	*-	*-	*-	*-	*-	*-	*-
!!!system-decoration: [(s1,s2,s3,s4)]
!!!RDF**kern: > = above
!!!RDF**kern: < = below
!!!filter-modern: sic -sq | autostem -r | humtr -p | shed -e "s/-//B" | shed -e "s/^custos:/Xcustos:/I" | shed -e "s/^(\d+[\/\\]right)/$1yy/I; s/^(\d+[\/\\]left)/$1yy/I" | shed -k -e "s/[<>]//g" | shed -e "s/TX(.*):t=P:/tx$1:t=P:/LG" | shed -k -e “s/([^a-gA-Gn#X-])[<>]/$1/g” | modori -m
!!!EED: Leszek Kubiak
!!!EEV: 2021-03-25
!!!ENC: Kamil Watkowski
!!!END: 2021-03-22
!!!ENC-modern: Leszek Kubiak
!!!END-modern: 2022-07-09
!!!ENC-iiif: Mateusz Mrugas
!!!END-iiif: 2022-09-03
!!!YEC: Copyright 2022 Narodowy Instytut Fryderyka Chopina (https://polishscores.org)
!!!YEM: License CC-BY-4.0 (https://creativecommons.org/licenses/by/4.0)
